X:1
T:Around the House and Mind the Dresser
M:12/8
L:1/8
C:
S:Trad.
R:slide
D:Chieftains "Live" and "Bonaparte's Retreat"
Z:Gary Chapin
K:D Major
g|f2d A2=c B2A G2g|f2d ABc d3 d2g|f2d A2=c B2A G3|fag fBc d3 d2::a|
f2g agf e2f gfe|f2g agf e3 g3|f2g agf e2f g2{a}g|gfe ABc d3 d2:||
